src/assets/trakto.svg.svg

<svg width="125" height="30" viewBox="0 0 125 30" fill="none" xmlns="http://www.w3.org/2000/svg">
<path d="M106.349 20.6351C106.801 16.8052 109.119 13.0843 111.654 13.0843C111.654 13.0843 114.45 13.0843 113.569 18.6218C113.413 19.6464 113.151 20.652 112.788 21.6224C112.431 21.5968 112.073 21.6465 111.737 21.7682C111.4 21.89 111.093 22.0811 110.836 22.3292C110.538 22.639 110.365 23.0467 110.347 23.4757C110.288 24.0096 110.413 24.5476 110.701 25.001C110.053 25.7531 109.139 26.2251 108.151 26.3181C106.333 26.3181 105.893 24.464 106.345 20.6293L106.349 20.6351ZM12.4406 1.36243C11.2817 1.92256 10.0471 2.3101 8.7759 2.51273C8.6273 2.54729 8.48998 2.61917 8.37691 2.72159C8.26385 2.824 8.17878 2.95356 8.12976 3.09801C7.97063 3.56179 7.30036 5.85469 7.10459 6.4525C7.04489 6.63221 6.92736 6.78709 6.77034 6.89298C6.61332 6.99886 6.42565 7.04977 6.23663 7.03778C5.36867 6.97703 2.06366 6.56242 1.62485 6.52578C1.45632 6.5139 1.28798 6.55145 1.14048 6.63383C0.992982 6.71622 0.872739 6.83985 0.7945 6.98957C0.24536 8.30163 -0.0246111 9.71361 0.0017618 11.1357C0.0296184 11.3081 0.110376 11.4676 0.232871 11.5922C0.355366 11.7167 0.513544 11.8001 0.685523 11.8309C1.02692 11.8916 3.99246 12.3188 4.33386 12.367C4.4499 12.3865 4.56062 12.4299 4.65904 12.4944C4.75747 12.5589 4.84145 12.6431 4.90569 12.7417C4.96994 12.8403 5.01306 12.9511 5.03232 13.0671C5.05159 13.1832 5.04659 13.302 5.01763 13.416C2.45521 23.4188 2.82264 29.9532 11.5216 29.9532C18.7449 29.9532 24.2102 20.9263 26.7476 12.3265C27.3906 12.8725 27.9978 13.4593 28.5655 14.0833C28.76 14.3374 28.8695 14.6463 28.8784 14.9662C28.8872 15.2861 28.7949 15.6007 28.6146 15.8651C26.7823 18.5485 20.4172 28.882 29.6639 29.9542C33.0316 30.3322 35.8988 28.3314 38.2529 25.4282C38.4458 27.3431 39.5336 29.8076 43.8657 29.8076C47.5874 29.8076 50.1006 26.9651 51.662 24.2817C51.6002 24.5257 50.3928 29.8076 54.8705 29.8076C57.1157 29.8076 59.5064 28.072 61.4468 26.1234C61.3002 26.7578 61.1575 27.3923 61.007 28.0518C60.9372 28.3425 60.9802 28.6489 61.1273 28.9092C61.2744 29.1695 61.5147 29.3645 61.7998 29.4547C63.3023 30.0173 64.9649 29.9734 66.4356 29.3323C66.5985 29.2544 66.7414 29.1404 66.8534 28.9988C66.9654 28.8573 67.0435 28.692 67.0818 28.5156C67.3142 27.4781 67.8996 24.9413 68.8389 21.4151H68.8756C69.7175 26.2092 72.5847 29.7951 77.3431 29.7951C80.8082 29.7951 83.6117 27.7702 85.8722 24.7079C86.4326 27.8435 88.153 29.9542 91.7647 29.9542C95.2424 29.9542 98.0604 27.9043 100.33 24.8313C101.062 28.2707 103.063 29.9542 107.04 29.9542C109.933 29.8872 112.725 28.8807 114.995 27.0866C114.995 27.075 114.983 27.075 114.983 27.0625C114.521 26.1683 114.283 25.176 114.287 24.1699C114.29 22.6285 114.856 21.1411 115.878 19.9871C116.9 18.8331 118.308 18.0918 119.839 17.9025H119.875C119.899 17.61 119.911 17.3294 119.912 17.0608C119.912 9.44831 112.554 9.44831 112.554 9.44831C105.563 9.44831 100.317 14.8893 100.012 20.6332C98.2764 23.5856 96.1692 25.9276 93.7775 26.2815C89.8494 26.8668 90.8842 20.1578 92.9847 13.1798C93.0289 13.0352 93.1183 12.9085 93.2398 12.8184C93.3613 12.7283 93.5085 12.6796 93.6598 12.6794C95.481 12.6816 97.2998 12.5472 99.1009 12.2773C99.2192 12.257 99.3304 12.2072 99.4243 12.1325C99.5182 12.0579 99.5917 11.9608 99.6381 11.8502C99.9495 11.0755 100.099 10.2453 100.078 9.4107C100.076 9.31561 100.056 9.22179 100.017 9.13485C99.9788 9.04791 99.9231 8.96965 99.8536 8.90474C99.7841 8.83983 99.7022 8.78961 99.6128 8.7571C99.5234 8.72458 99.4284 8.71043 99.3334 8.7155C98.0642 8.80132 96.7227 8.82543 95.3928 8.81193C95.28 8.81231 95.1688 8.78541 95.0687 8.73353C94.9686 8.68164 94.8825 8.60631 94.8178 8.51395C94.7531 8.4216 94.7117 8.31497 94.6971 8.20316C94.6825 8.09134 94.6952 7.97766 94.7341 7.87182C95.1775 6.46942 95.6992 5.09295 96.2965 3.74885C96.3485 3.63074 96.3757 3.50326 96.3766 3.37423C96.3775 3.2452 96.3521 3.11734 96.3017 2.99851C96.2514 2.87968 96.1774 2.77239 96.0841 2.68322C95.9908 2.59404 95.8803 2.52487 95.7593 2.47995C94.2977 1.89899 92.6959 1.76739 91.1591 2.10198C91.0111 2.13328 90.8727 2.19936 90.7553 2.29477C90.6379 2.39017 90.5449 2.51215 90.484 2.65062C89.6457 4.37659 88.9718 6.17765 88.4713 8.02995C88.4234 8.18032 88.3263 8.31021 88.1957 8.39871C88.065 8.48721 87.9083 8.52917 87.7509 8.51784C87.0314 8.46963 86.4692 8.42142 86.1037 8.39539C85.963 8.37924 85.8207 8.40687 85.6963 8.47451C85.5719 8.54215 85.4713 8.64651 85.4084 8.77336C85.0336 9.57625 84.9103 10.4736 85.0544 11.3478C85.076 11.4902 85.1417 11.6222 85.2425 11.7252C85.3432 11.8282 85.4738 11.8968 85.6157 11.9215C85.905 11.9823 86.1886 12.0314 86.4692 12.0806C86.5657 12.0955 86.658 12.1306 86.74 12.1836C86.822 12.2367 86.8918 12.3065 86.9449 12.3884C86.998 12.4704 87.0332 12.5627 87.0481 12.6592C87.063 12.7557 87.0573 12.8542 87.0314 12.9484C86.3646 15.6578 85.9078 18.4147 85.6649 21.1943C83.8836 24.2682 81.8073 25.756 79.3693 26.1224C76.6487 26.5255 74.4894 23.5605 74.148 19.4009V19.3893C76.1936 18.3843 78.02 16.9843 79.5216 15.27C81.0232 13.5556 82.1704 11.561 82.897 9.40106C82.9709 9.17552 82.9581 8.93057 82.8611 8.71398C82.7641 8.49738 82.5899 8.32468 82.3724 8.22954C80.8496 7.63739 79.164 7.61582 77.6266 8.1688C77.4667 8.22076 77.3231 8.31328 77.2097 8.43732C77.0962 8.56136 77.0169 8.71269 76.9795 8.87653C75.6496 14.7688 71.5875 16.2807 70.7822 16.5131C70.7215 16.5372 70.4283 16.6095 70.1843 16.6712C71.1718 12.7179 74.3312 4.30231 74.5395 3.75078C74.5929 3.60447 74.6115 3.44771 74.5937 3.29297C74.5758 3.13824 74.5221 2.9898 74.4368 2.85947C74.3515 2.72914 74.2369 2.62052 74.1022 2.54225C73.9676 2.46397 73.8165 2.41821 73.661 2.4086C72.6567 2.51625 71.7021 2.90082 70.9037 3.51937C70.1325 3.95296 69.2956 4.2578 68.4262 4.42187C68.304 4.44658 68.1908 4.50378 68.0985 4.58744C68.0062 4.6711 67.9381 4.77813 67.9015 4.89723C67.8635 5.00502 67.8314 5.11478 67.8051 5.22602C67.781 5.28773 67.7685 5.33594 67.7443 5.38512C65.7305 10.7267 63.9999 16.1708 62.5597 21.6948C60.8392 24.2316 58.9972 25.8659 57.6307 25.8659C55.3373 25.8659 57.5342 19.1695 58.2778 17.0829C58.3433 16.8955 58.3441 16.6915 58.2799 16.5035C58.2157 16.3156 58.0904 16.1546 57.9238 16.0464C56.6308 15.2601 55.0977 14.9657 53.6052 15.2172C53.4327 15.2455 53.2704 15.3175 53.1336 15.4264C52.9969 15.5353 52.8903 15.6774 52.8241 15.8391C47.0897 29.5135 44.2476 26.9275 44.5302 22.8287C44.7993 18.6691 48.898 13.1673 52.9369 13.1673C55.1916 13.1904 57.4021 13.7956 59.354 14.9241C59.5266 15.0217 59.7244 15.0657 59.9221 15.0505C60.1199 15.0352 60.3086 14.9613 60.4641 14.8382C60.8843 14.5117 61.2507 14.1212 61.55 13.6812C61.674 13.4885 61.7359 13.2624 61.7272 13.0334C61.7186 12.8044 61.6399 12.5836 61.5018 12.4007C60.709 11.3517 58.5854 9.31524 53.8637 9.31524C47.9953 9.31524 39.7603 14.305 38.4786 21.8799C31.7808 31.0891 28.6937 25.515 33.0008 19.1965C35.2825 15.842 36.0994 14.4718 32.208 11.4018C28.3166 8.33175 29.365 8.13312 29.365 6.31558C29.365 4.49804 25.8024 2.76536 24.4233 6.79094C24.1799 7.45854 24.1217 8.17954 24.2548 8.87754C24.3879 9.57554 24.7074 10.2245 25.1794 10.7558C23.3866 16.3916 18.445 25.5526 13.5401 26.2796C9.59951 26.8649 11.1001 19.8145 13.1861 12.8365C13.2288 12.6911 13.3179 12.5636 13.4397 12.4734C13.5616 12.3832 13.7096 12.3354 13.8612 12.3371C15.6868 12.3446 17.5102 12.2099 19.3149 11.934C19.4307 11.916 19.5398 11.8683 19.6317 11.7957C19.7237 11.723 19.7952 11.6279 19.8395 11.5194C20.267 10.3908 20.5379 9.20893 20.6448 8.00681C20.6434 7.91172 20.6228 7.8179 20.5842 7.73096C20.5457 7.64402 20.49 7.56575 20.4205 7.50084C20.351 7.43594 20.2691 7.38572 20.1797 7.3532C20.0903 7.32069 19.9953 7.30654 19.9003 7.31161C18.6311 7.38489 17.2897 7.40803 15.9588 7.40803C15.8461 7.40819 15.735 7.38115 15.635 7.3292C15.535 7.27725 15.449 7.20194 15.3843 7.10965C15.3197 7.01736 15.2782 6.91083 15.2636 6.7991C15.2489 6.68738 15.2614 6.57377 15.3001 6.46793C15.8132 5.00426 16.6425 2.32182 16.8865 1.64687C16.9517 1.46769 16.9743 1.2758 16.9526 1.08638C16.9308 0.896954 16.8653 0.715186 16.7612 0.555441C16.6571 0.395696 16.5172 0.262356 16.3527 0.165956C16.1881 0.0695551 16.0034 0.0127397 15.8132 0H15.7119C14.5261 0.168733 13.4026 0.63551 12.4464 1.35664" fill="#04183E"/>
<path d="M116.233 24.1809C116.233 25.0476 116.49 25.8949 116.972 26.6156C117.454 27.3362 118.138 27.8979 118.939 28.2296C119.74 28.5613 120.622 28.6481 121.472 28.479C122.322 28.3099 123.103 27.8925 123.716 27.2796C124.329 26.6668 124.746 25.8859 124.916 25.0358C125.085 24.1857 124.998 23.3046 124.666 22.5038C124.334 21.7031 123.773 21.0186 123.052 20.5371C122.331 20.0555 121.484 19.7985 120.617 19.7985C120.041 19.7985 119.471 19.9119 118.939 20.1321C118.408 20.3524 117.924 20.6752 117.517 21.0821C117.11 21.489 116.787 21.9721 116.567 22.5038C116.347 23.0355 116.233 23.6054 116.233 24.1809Z" fill="#FE6E46"/>
</svg>

<svg fill="none" xmlns="http://www.w3.org/2000/svg" viewBox="0 0 125 30">
  <path d="M106.349 20.635c.452-3.83 2.77-7.55 5.305-7.55 0 0 2.796 0 1.915 5.537a15.016 15.016 0 0 1-.781 3 2.55 2.55 0 0 0-1.952.707c-.298.31-.471.718-.489 1.147a2.361 2.361 0 0 0 .354 1.525 3.841 3.841 0 0 1-2.55 1.317c-1.818 0-2.258-1.854-1.806-5.689l.004.006ZM12.441 1.362c-1.16.56-2.394.948-3.665 1.15a.897.897 0 0 0-.646.586c-.16.464-.83 2.757-1.025 3.354a.857.857 0 0 1-.868.586c-.868-.061-4.173-.476-4.612-.512a.868.868 0 0 0-.83.464 10.247 10.247 0 0 0-.793 4.146.843.843 0 0 0 .684.695c.34.06 3.306.488 3.648.536a.85.85 0 0 1 .684 1.049c-2.563 10.003-2.195 16.537 6.504 16.537 7.223 0 12.688-9.027 15.226-17.627a19.67 19.67 0 0 1 1.817 1.757 1.522 1.522 0 0 1 .05 1.782c-1.833 2.684-8.198 13.017 1.049 14.09 3.368.377 6.235-1.624 8.589-4.527.193 1.915 1.28 4.38 5.613 4.38 3.721 0 6.235-2.843 7.796-5.526-.062.244-1.27 5.526 3.209 5.526 2.245 0 4.635-1.736 6.576-3.685-.147.635-.29 1.27-.44 1.929a1.182 1.182 0 0 0 .793 1.403 6.18 6.18 0 0 0 4.636-.123 1.184 1.184 0 0 0 .646-.816 187.64 187.64 0 0 1 1.757-7.1h.037c.841 4.793 3.709 8.38 8.467 8.38 3.465 0 6.269-2.026 8.53-5.088.56 3.136 2.28 5.246 5.892 5.246 3.477 0 6.295-2.05 8.565-5.123.732 3.44 2.733 5.123 6.71 5.123a13.326 13.326 0 0 0 7.955-2.867c0-.012-.012-.012-.012-.024a6.246 6.246 0 0 1-.696-2.893 6.328 6.328 0 0 1 5.552-6.268h.036c.024-.292.036-.573.037-.841 0-7.613-7.358-7.613-7.358-7.613-6.991 0-12.237 5.441-12.542 11.185-1.736 2.953-3.843 5.295-6.234 5.649-3.929.585-2.894-6.124-.793-13.102a.707.707 0 0 1 .675-.5c1.821.002 3.64-.133 5.44-.403a.713.713 0 0 0 .538-.427c.311-.774.461-1.605.44-2.44a.71.71 0 0 0-.745-.694c-1.269.085-2.61.11-3.94.096a.7.7 0 0 1-.659-.94 39.406 39.406 0 0 1 1.563-4.123.946.946 0 0 0-.538-1.269 7.903 7.903 0 0 0-4.6-.378.953.953 0 0 0-.675.549 30.557 30.557 0 0 0-2.013 5.379.703.703 0 0 1-.72.488c-.72-.048-1.282-.097-1.647-.123a.689.689 0 0 0-.696.378 4.396 4.396 0 0 0-.354 2.575.687.687 0 0 0 .562.573c.289.061.573.11.853.16a.694.694 0 0 1 .562.867 54.278 54.278 0 0 0-1.366 8.246c-1.781 3.074-3.858 4.562-6.296 4.928-2.72.404-4.88-2.561-5.221-6.721v-.012a17.263 17.263 0 0 0 8.749-9.988.954.954 0 0 0-.525-1.171 6.771 6.771 0 0 0-4.745-.061.972.972 0 0 0-.647.708c-1.33 5.892-5.392 7.404-6.198 7.636-.06.024-.354.096-.598.158.988-3.953 4.147-12.369 4.356-12.92a1.002 1.002 0 0 0-.879-1.342 5.45 5.45 0 0 0-2.757 1.11 8.133 8.133 0 0 1-2.478.903.692.692 0 0 0-.525.475 3.21 3.21 0 0 0-.096.329c-.024.062-.037.11-.06.16a162.311 162.311 0 0 0-5.185 16.309c-1.72 2.537-3.563 4.17-4.93 4.17-2.293 0-.096-6.695.648-8.782a.887.887 0 0 0-.354-1.037 6.298 6.298 0 0 0-4.319-.829 1.023 1.023 0 0 0-.78.622c-5.735 13.675-8.577 11.088-8.295 6.99.27-4.16 4.368-9.662 8.407-9.662 2.255.023 4.465.629 6.417 1.757a.999.999 0 0 0 1.11-.086c.42-.326.787-.717 1.086-1.157a1.119 1.119 0 0 0-.048-1.28c-.793-1.05-2.917-3.086-7.638-3.086-5.869 0-14.104 4.99-15.385 12.565-6.698 9.21-9.785 3.635-5.478-2.683 2.282-3.355 3.098-4.725-.793-7.795-3.891-3.07-2.843-3.269-2.843-5.086 0-1.818-3.563-3.55-4.942.475a3.938 3.938 0 0 0 .756 3.965c-1.792 5.636-6.734 14.797-11.639 15.524-3.94.585-2.44-6.466-.354-13.444a.696.696 0 0 1 .675-.499 35.132 35.132 0 0 0 5.454-.403.68.68 0 0 0 .524-.415c.428-1.128.699-2.31.806-3.512a.705.705 0 0 0-.745-.695c-1.269.073-2.61.096-3.941.096a.7.7 0 0 1-.659-.94c.513-1.464 1.342-4.146 1.587-4.821A1.23 1.23 0 0 0 15.813 0h-.101a7.08 7.08 0 0 0-3.266 1.357" style="fill: var(--fill-color, #04183E)"/>
  <path d="M116.233 24.18a4.38 4.38 0 0 0 2.706 4.05 4.386 4.386 0 0 0 5.977-3.194 4.38 4.38 0 0 0-4.299-5.238 4.387 4.387 0 0 0-4.05 2.706 4.387 4.387 0 0 0-.334 1.677Z" style="fill: var(--fill-accent-color, #FE6E46)"/>
</svg>
